X: 21471
M: 6/8
L: 1/8
K: C
V: 1 name="4"
e/f/ |\
g2g {g}g^fg | g2e ede | g2f fef | a3 gef |\
g2g {g}g^fg | g2e ede | g2f fed | c3 z2 H|]
a/g/ |\
g2B {c}BAB | d2c c2c/c/ | _a2a g2^f | g3 z2e/f/ |\
g2e {a}g^fg | g2e {f}ede | fag fed | c3 z2e/f/ |
g2g {a}g^fg | g2e {f}ede | g2f fef | a3 gef |\
g2g {a}g^fg | g2e {f}ede | g2f fed | c3 z2G |
a2a abc' | g3 z2e/g/ | g2e gfd | c3 "^D.C."z2 |]


